X:32
T:Maid of the Mill (Bampton)
M:6/8
L:1/8
O:England; Oxfordshire; Bampton.
B:Lionel Bacon, A Handbook of Morris Dances
N:transposed  
P:A(AB2)4
K:G
P:A
D|G>FG B>AG|A>Bc d>BG|D>cB d>cd|A>FD D>EF|
G>FG B>AG|A>Bc d>BG|D>cB A>GF|G3 G2 ||
P:B
B/c/|d>ed d>F'G'|c>AB c>dc|A>Bc d>ed|G3 F>ED|
G>FG B>AG|A>Bc d>BG|D>cB A>GF|G3 G2 ||

